X: 13
T: Out On The Ocean
R: jig
M: 6/8
L: 1/8
K: Gmaj
   "G" D2B BAG | BdB A2B | "C" GED G2A | "G" BAB "D" AGE |
   "G" D2B BAG | BdB A2B | "C" GED G2A |1 "D" BGF "G" GFE :|2 "D" BGF "G" GBd ||
|: "Em"e2e edB | efe edB | "D" d2d def | "G" gfe "D" dBA | 
   "G" G2A B2d | "C" ege "G" dBA | "C" GED "G" G2A  |1 "D" BGF "G" GBd :|2 "D" BGF "G" G3 |]


